usr/share/icons/big-icons/symbolic/actions/debug-execute-from-cursor.svg

<svg xmlns="http://www.w3.org/2000/svg" viewBox="0 0 16 16">
<defs id="defs3051">
<style id="current-color-scheme" type="text/css">
.ColorScheme-Text{color:#fcfcfc}
</style>
</defs>
<path d="M2 2v1h2v10H2v1h5v-1H5V3h2V2zm5 3v6h1V9h3v2l3-3-3-3v2H8V5z" class="ColorScheme-Text" style="fill:currentColor;fill-opacity:1;stroke:none"/>
</svg>

<svg xmlns="http://www.w3.org/2000/svg" viewBox="0 0 16 16">
  <defs id="defs3051">
    <style type="text/css" id="current-color-scheme">
      .ColorScheme-Text {
        color:#eff0f1;
      }
      </style>
  </defs>
 <path style="fill:currentColor;fill-opacity:1;stroke:none" 
       d="M 2 2 L 2 3 L 4 3 L 4 13 L 2 13 L 2 14 L 7 14 L 7 13 L 5 13 L 5 3 L 7 3 L 7 2 L 2 2 z M 7 5 L 7 11 L 8 11 L 8 9 L 11 9 L 11 11 L 14 8 L 11 5 L 11 7 L 8 7 L 8 5 L 7 5 z "
     class="ColorScheme-Text"
     />
</svg>
